packages/dnb-ui-lib/assets/icons/ref_number_medium.svg

<svg width="24" height="24" viewBox="0 0 24 24" fill="none" xmlns="http://www.w3.org/2000/svg">
<path fill-rule="evenodd" clip-rule="evenodd" d="M2 2.25C1.0335 2.25 0.25 3.0335 0.25 4V20C0.25 20.9665 1.0335 21.75 2 21.75H22C22.9665 21.75 23.75 20.9665 23.75 20V4C23.75 3.0335 22.9665 2.25 22 2.25H2ZM1.75 4C1.75 3.86193 1.86193 3.75 2 3.75H22C22.1381 3.75 22.25 3.86193 22.25 4V20C22.25 20.1381 22.1381 20.25 22 20.25H2C1.86193 20.25 1.75 20.1381 1.75 20V4ZM7.38601 15H8.95201L7.61101 12.444C8.41201 12.192 8.86201 11.562 8.86201 10.635C8.86201 9.41101 8.07001 8.70001 6.71101 8.70001H4.20001V15H5.55001V12.57H6.22501L7.38601 15ZM5.55001 9.78001H6.49501C7.17901 9.78001 7.49401 10.05 7.49401 10.635C7.49401 11.22 7.17901 11.49 6.49501 11.49H5.55001V9.78001ZM14.2174 9.78001V8.70001H10.3474V15H14.2174V13.92H11.6974V12.399H13.8574V11.319H11.6974V9.78001H14.2174ZM19.776 8.70001V9.78001H17.256V11.319H19.416V12.399H17.256V15H15.906V8.70001H19.776Z" fill="black"/>
</svg>

<svg width="24" height="24" viewBox="0 0 24 24" fill="none" xmlns="http://www.w3.org/2000/svg"><path fill-rule="evenodd" clip-rule="evenodd" d="M2 2.25A1.75 1.75 0 00.25 4v16c0 .966.784 1.75 1.75 1.75h20A1.75 1.75 0 0023.75 20V4A1.75 1.75 0 0022 2.25H2zM1.75 4A.25.25 0 012 3.75h20a.25.25 0 01.25.25v16a.25.25 0 01-.25.25H2a.25.25 0 01-.25-.25V4zm5.636 11h1.566l-1.341-2.556c.801-.252 1.251-.882 1.251-1.809 0-1.224-.792-1.935-2.151-1.935H4.2V15h1.35v-2.43h.675L7.386 15zM5.55 9.78h.945c.684 0 .999.27.999.855s-.315.855-.999.855H5.55V9.78zm8.667 0V8.7h-3.87V15h3.87v-1.08h-2.52v-1.521h2.16v-1.08h-2.16V9.78h2.52zm5.559-1.08v1.08h-2.52v1.539h2.16v1.08h-2.16V15h-1.35V8.7h3.87z" fill="#000"/></svg>
